public/assets/techs/cypress.svg

<svg width="20" height="20" viewBox="0 0 20 20" fill="none" xmlns="http://www.w3.org/2000/svg">
<path d="M10.0469 17.9844C8.47614 17.9844 6.94066 17.5186 5.63462 16.6459C4.32859 15.7733 3.31066 14.5329 2.70955 13.0817C2.10845 11.6305 1.95118 10.0337 2.25762 8.49311C2.56405 6.95254 3.32044 5.53743 4.43114 4.42674C5.54183 3.31605 6.95693 2.55966 8.49751 2.25322C10.0381 1.94678 11.6349 2.10406 13.0861 2.70516C14.5373 3.30626 15.7777 4.32419 16.6503 5.63023C17.523 6.93626 17.9888 8.47174 17.9888 10.0425C17.9864 12.1481 17.149 14.1668 15.6601 15.6557C14.1712 17.1446 12.1525 17.9821 10.0469 17.9844V17.9844ZM10.0469 2.385C8.53223 2.385 7.05158 2.83415 5.7922 3.67567C4.53281 4.51718 3.55125 5.71325 2.97164 7.11263C2.39204 8.512 2.24042 10.0518 2.53596 11.5374C2.8315 13.0229 3.56093 14.3875 4.632 15.4585C5.70307 16.5294 7.06767 17.2588 8.55325 17.5542C10.0388 17.8496 11.5786 17.6978 12.978 17.1181C14.3773 16.5384 15.5733 15.5567 16.4147 14.2973C17.2561 13.0378 17.7051 11.5572 17.705 10.0425C17.7027 8.01215 16.8951 6.06562 15.4594 4.62994C14.0238 3.19427 12.0772 2.38669 10.0469 2.38437V2.385Z" fill="#EEEEEE"/>
<path d="M14.4525 12.8069C14.2282 13.5933 13.7737 14.2947 13.1475 14.8206C12.4545 15.3291 11.6241 15.6165 10.765 15.645L10.5663 14.34C11.0776 14.3062 11.5735 14.1507 12.0125 13.8862C12.1334 13.7803 12.2472 13.6665 12.3531 13.5456V13.5456L10 6H11.9569L13.3187 11.645L14.765 6H16.6656L14.4525 12.8069Z" fill="#EEEEEE"/>
<path d="M7.23323 6.0015C7.64868 5.98886 8.06268 6.05634 8.45261 6.20025C8.83489 6.34843 9.18961 6.55969 9.50198 6.82525L8.70823 7.90212C8.50639 7.75336 8.2873 7.62954 8.05573 7.53337C7.83826 7.45211 7.60718 7.41349 7.37511 7.41962C6.41073 7.41962 5.92886 8.15712 5.92886 9.66025C5.87273 10.225 6.00218 10.7926 6.29761 11.2771C6.42213 11.4416 6.58617 11.5721 6.77453 11.6563C6.96289 11.7405 7.16946 11.7759 7.37511 11.759C7.59803 11.7652 7.81993 11.7265 8.02761 11.6452C8.27225 11.5388 8.50927 11.4155 8.73698 11.2765L9.53136 12.4109C8.90494 12.9376 8.10904 13.2198 7.29073 13.2052C6.67736 13.2195 6.07096 13.0728 5.53198 12.7796C5.03651 12.4868 4.6411 12.0511 4.39761 11.5296C4.12436 10.9339 3.98872 10.2843 4.00073 9.629C3.99178 8.97399 4.12729 8.32506 4.39761 7.72837C4.64013 7.19307 5.03431 6.74065 5.53136 6.42712C6.05484 6.14698 6.63951 6.00076 7.23323 6.0015V6.0015Z" fill="#EEEEEE"/>
</svg>

<svg xmlns="http://www.w3.org/2000/svg" width="20" height="20" fill="#69d3a7" xmlns:v="https://vecta.io/nano"><path d="M10.047 17.984a7.94 7.94 0 0 1-7.337-4.903 7.94 7.94 0 0 1 1.722-8.655 7.94 7.94 0 0 1 8.655-1.722 7.94 7.94 0 0 1 4.903 7.337 7.95 7.95 0 0 1-7.942 7.942zm0-15.599a7.66 7.66 0 0 0-7.075 4.728 7.66 7.66 0 0 0 1.66 8.346 7.66 7.66 0 0 0 8.346 1.66 7.66 7.66 0 0 0 4.727-7.076c-.002-2.03-.81-3.977-2.246-5.413s-3.382-2.243-5.412-2.246v.001z"/><path d="M14.453 12.807a4.1 4.1 0 0 1-1.305 2.014c-.693.508-1.523.796-2.383.824l-.199-1.305a3.21 3.21 0 0 0 1.446-.454 3.65 3.65 0 0 0 .341-.341L10 6h1.957l1.362 5.645L14.765 6h1.901l-2.213 6.807zm-7.22-6.805a3.23 3.23 0 0 1 1.219.199 3.65 3.65 0 0 1 1.049.625l-.794 1.077a3.11 3.11 0 0 0-.652-.369 1.81 1.81 0 0 0-.681-.114c-.964 0-1.446.738-1.446 2.241a2.61 2.61 0 0 0 .369 1.617c.125.164.289.295.477.379s.395.12.601.103a1.67 1.67 0 0 0 .652-.114c.245-.106.482-.23.709-.369l.794 1.134a3.39 3.39 0 0 1-2.241.794 3.51 3.51 0 0 1-1.759-.426 2.86 2.86 0 0 1-1.134-1.25 4.37 4.37 0 0 1-.397-1.901 4.46 4.46 0 0 1 .397-1.901c.243-.535.637-.988 1.134-1.301C6.053 6.146 6.638 6 7.232 6z"/></svg>
